X: 375
T: Old Neils Ramble
%R: strathspey
Z: 2014 John Chambers <jc:trillian.mit.edu>
B: Preston "Twenty four Country Dances for the Year 1799" p.168 #1
F: http://www.vwml.org/browse/browse-collections-dance-tune-books/browse-prestons1799# 2014-8-10
M: C
L: 1/8
K: A
f |\
e<cg>e fB2f | ecae f3g |\
(a/g/f/e/) ac fB2g | afec A3 :|
|: E |\
A<AcA BF2B | A<Ac>A aefa |\
e<ac<a BF2g | a/g/f/g/ ac A3 :|
% - - - - - - - - - - - - - - - - - - - - - - - - -
%%begintext align
%% 1st Lady take hands with the 2d & 3d Gent.n
%% & foot it to the outside of the room, same time 1st
%% Gent: take hands with 2d & 3d Ladies & foot it to the
%% opposite side of the room  turn face to face & set 3
%% & 3 to each other lead down middle foot it Allem.d
%%endtext
% - - - - - - - - - - - - - - - - - - - - - - - - -

%%sep 1 1 500
%%sep 1 1 500
